!!!OTL: The Ghostly Sailors
!!!ONM: 117.
**kern
*clefG2
*k[]
*C:
*M6/8
*MM80
{8c
=1
8A
4G
8c
8.c
16d
=2
8e
4e}
{4d
8c
=3
4d
8e
4c
8B
=4
[4.c
4c]}
{16A
16A
=5
4G
8c
4e
8g
=6
8a
[4g
4g]}
{8g
=7
4g
8d
4d
8e
=8
[4.d
4d]
8f
=9
4f
8f
4f
8g
=10
8a
[4g
4g]}
{8e
=11
4e
8G
4c
8e
=12
[4.g
4g]}
{8A
=13
4G
8c
4c
8d
=14
8e
[4e
8e]}
{8c
8c
=15
4d
8e
4c
8B
=16
[4.c
4c]}
==
*-
!!!CNT: Folksongs of Maritime Canada
!!!MRD: 1928///-1932///
!!!OCL: Helen Creighton
!!!YOR: Songs and Ballads from Nova Scotia
!!!PPR: J.M. Dent & Sons, Limited
!!!PPP: Toronto, Canada
!!!PDT: 1932///
!!!reprint: Dover Publications, 1992: ISBN 0-486-21703-5
!!!ENC1: Craig Stuart Sapp (music and bibliographic data)                       
!!!ENC2: Marcus Pearce (phrase markings and key designations)                   
!!!ENC3: Darrell Conklin (phrase markings and key designations)   
!!!END: 2002/04/10/
!!!EEV: 2004/06/05
!!!MPN: Mr. Gordon Young
!!!PPG: 254
!!!EFL: 118/152
!!!ARE: Canada; Nova Scotia
!!!verses: 8
!!!VTS: 3882808178
